resources/images/ams_rfid_5.svg

<svg width="30" height="30" xmlns="http://www.w3.org/2000/svg" fill="none">
 <defs>
  <clipPath id="clip0_7112_29427">
   <rect id="svg_1" fill="white" height="30" width="30"/>
  </clipPath>
 </defs>
 <g>
  <title>Layer 1</title>
  <g id="svg_2" clip-path="url(#clip0_7112_29427)">
   <path id="svg_3" stroke="black" d="m31.1539,-1.15234l-32.30771,0l0,32.30764l32.30771,0l0,-32.30764z"/>
   <path id="svg_4" fill="#6B6B6B" d="m11.4427,4.81286c0.0164,-0.16327 -0.121,-0.30059 -0.2842,-0.28418l-5.60789,0.56172c-0.21793,0.02178 -0.31254,0.28695 -0.15769,0.4418l1.75906,1.75906c-0.32956,0.33556 -0.63606,0.69067 -0.91816,1.06283c-1.0021,1.32201 -1.69629,2.85911 -2.02245,4.49891c-0.42444,2.1337 -0.2066,4.3455 0.62596,6.3555c0.83256,2.01 2.24246,3.7279 4.0514,4.9366c1.80897,1.2087 3.93567,1.8539 6.11127,1.8539c2.1756,0 4.3023,-0.6452 6.1113,-1.8539c1.8089,-1.2087 3.2188,-2.9266 4.0514,-4.9366c0.8325,-2.01 1.0504,-4.2218 0.6259,-6.3555c-0.3261,-1.6398 -1.0203,-3.1769 -2.0224,-4.49891c-0.3019,-0.39833 -0.6318,-0.77712 -0.988,-1.13331l-0.5303,0.53028l-0.5304,0.53038l-0.5303,0.53028c1.2238,1.22368 2.0571,2.78288 2.3947,4.48018c0.3377,1.6973 0.1644,3.4567 -0.4979,5.0556c-0.6623,1.5988 -1.7838,2.9654 -3.2227,3.9269c-1.439,0.9614 -3.1307,1.4746 -4.8613,1.4746c-1.7306,0 -3.4223,-0.5132 -4.8613,-1.4746c-1.43891,-0.9615 -2.56043,-2.3281 -3.2227,-3.9269c-0.66227,-1.5989 -0.83555,-3.3583 -0.49793,-5.0556c0.33117,-1.6649 1.1393,-3.1968 2.32494,-4.40961l1.69609,1.69611c0.1549,0.1549 0.42,0.0602 0.4419,-0.1576l0.5617,-5.60794z" clip-rule="evenodd" fill-rule="evenodd"/>
  </g>
 </g>
</svg>

<svg width="30" height="30" viewBox="0 0 30 30" fill="none" xmlns="http://www.w3.org/2000/svg">
<g clip-path="url(#clip0_10670_19498)">
<mask id="mask0_10670_19498" style="mask-type:luminance" maskUnits="userSpaceOnUse" x="0" y="0" width="30" height="30">
<path d="M30 0H0V30H30V0Z" fill="white"/>
</mask>
<g mask="url(#mask0_10670_19498)">
<path d="M31.1534 -1.15234H-1.1543V31.1553H31.1534V-1.15234Z" stroke="black"/>
<path fill-rule="evenodd" clip-rule="evenodd" d="M11.4427 4.81286C11.4591 4.64959 11.3217 4.51227 11.1585 4.52868L5.55061 5.0904C5.33268 5.11218 5.23807 5.37735 5.39292 5.5322L7.15198 7.29126C6.82242 7.62682 6.51592 7.98193 6.23382 8.35409C5.23172 9.6761 4.53753 11.2132 4.21137 12.853C3.78693 14.9867 4.00477 17.1985 4.83733 19.2085C5.66989 21.2185 7.07979 22.9364 8.88873 24.1451C10.6977 25.3538 12.8244 25.999 15 25.999C17.1756 25.999 19.3023 25.3538 21.1113 24.1451C22.9202 22.9364 24.3301 21.2185 25.1627 19.2085C25.9952 17.1985 26.2131 14.9867 25.7886 12.853C25.4625 11.2132 24.7683 9.6761 23.7662 8.35409C23.4643 7.95576 23.1344 7.57697 22.7782 7.22078L22.2479 7.75106L21.7175 8.28144L21.1872 8.81172C22.411 10.0354 23.2443 11.5946 23.5819 13.2919C23.9196 14.9892 23.7463 16.7486 23.084 18.3475C22.4217 19.9463 21.3002 21.3129 19.8613 22.2744C18.4223 23.2358 16.7306 23.749 15 23.749C13.2694 23.749 11.5777 23.2358 10.1387 22.2744C8.69979 21.3129 7.57827 19.9463 6.916 18.3475C6.25373 16.7486 6.08045 14.9892 6.41807 13.2919C6.74924 11.627 7.55737 10.0951 8.74301 8.88229L10.4391 10.5784C10.594 10.7333 10.8591 10.6386 10.881 10.4208L11.4427 4.81286Z" fill="#6B6B6B"/>
</g>
</g>
<defs>
<clipPath id="clip0_10670_19498">
<rect width="30" height="30" fill="white"/>
</clipPath>
</defs>
</svg>
